X: 35001
T: Roheera
R: jig
M: 6/8
K: Gmajor
|:GAF GAF|GAB cBA|GAF GAF|Eed cBA|
GAF GAF|GAB cAe|dcA cBG|ADD [1 D3:|2 D2D||
|:EFD EFG|ABc d2f|gaf gfe|dcB A2A|
BcA Bcd|edB cde|gfd cBG|ADD [1 D2D:|2 D3||

